src/assets/dark/EmailVerificationFailed.svg

<svg width="181" height="180" viewBox="0 0 181 180" fill="none" xmlns="http://www.w3.org/2000/svg">
<circle cx="90.5117" cy="90" r="90" fill="#FF6D6D" fill-opacity="0.2"/>
<circle cx="90.5151" cy="89.9975" r="44.8549" fill="url(#paint0_linear)"/>
<path d="M106.416 74.0919L106.416 74.0919C105.755 73.4308 104.683 73.4308 104.022 74.0919L74.6075 103.507C73.9465 104.168 73.9465 105.239 74.6075 105.9C74.938 106.231 75.3719 106.396 75.8044 106.396C76.237 106.396 76.6709 106.231 77.0013 105.9L106.416 76.4855C107.077 75.8246 107.077 74.7529 106.416 74.0919Z" fill="white" stroke="white" stroke-width="0.8"/>
<path d="M106.416 103.507L106.416 103.507C107.077 104.168 107.077 105.239 106.416 105.9L106.416 105.9C106.086 106.231 105.652 106.396 105.219 106.396C104.787 106.396 104.353 106.231 104.022 105.9C104.022 105.9 104.022 105.9 104.022 105.9L74.6075 76.4855C73.9465 75.8245 73.9464 74.7529 74.6075 74.0919C74.6075 74.0919 74.6075 74.0919 74.6075 74.0918M106.416 103.507L76.7183 74.3747C76.2136 73.8699 75.3951 73.8699 74.8903 74.3747L74.6075 74.0918M106.416 103.507L77.0012 74.0919L106.416 103.507ZM74.6075 74.0918C75.2685 73.4308 76.3402 73.4308 77.0012 74.0919L74.6075 74.0918Z" fill="white" stroke="white" stroke-width="0.8"/>
<defs>
<linearGradient id="paint0_linear" x1="11.5959" y1="242.075" x2="118.095" y2="59.8148" gradientUnits="userSpaceOnUse">
<stop stop-color="#CF5050"/>
<stop offset="1" stop-color="#FF6D6D"/>
</linearGradient>
</defs>
</svg>

<svg width="181" height="180" fill="none" xmlns="http://www.w3.org/2000/svg"><circle cx="90.512" cy="90" r="90" fill="#FF6D6D" fill-opacity=".2"/><circle cx="90.515" cy="89.998" r="44.855" fill="url(#paint0_linear)"/><path d="M106.416 74.092h0a1.693 1.693 0 00-2.394 0l-29.415 29.415a1.692 1.692 0 102.394 2.393l29.415-29.415a1.692 1.692 0 000-2.393z" fill="#fff" stroke="#fff" stroke-width=".8"/><path d="M106.416 103.507h0a1.692 1.692 0 010 2.393h0a1.689 1.689 0 01-2.394 0s0 0 0 0L74.607 76.485a1.692 1.692 0 010-2.393s0 0 0 0m31.809 29.415L76.718 74.375a1.293 1.293 0 00-1.828 0l-.282-.283m31.808 29.415L77.001 74.092l29.415 29.415zM74.608 74.092a1.693 1.693 0 012.393 0h-2.394z" fill="#fff" stroke="#fff" stroke-width=".8"/><defs><linearGradient id="paint0_linear" x1="11.596" y1="242.075" x2="118.095" y2="59.815" gradientUnits="userSpaceOnUse"><stop stop-color="#CF5050"/><stop offset="1" stop-color="#FF6D6D"/></linearGradient></defs></svg>
